X:4093
T:Mazurka de Comptoir
O:england
C:Christian Desnos
M:3/4
L:1/8
K:C
G AB|:c2 cG cd|e2 ed ef|ed cB AB|1 A2 GG AB:|2 c3 G AG||
B2 BG AG|B2 BG AG|1 fe dc BA|B3 G AG:|2  fe dc AB|c3||


